src/pos-icons/emoticon-poop.svg

<svg height="24" viewBox="0 0 24 24" width="24" xmlns="http://www.w3.org/2000/svg"><path d="m11.36 2c-.21 0-.49.12-.79.32-.57.38-1.72 1.58-2.17 2.78-.34.9-.35 1.72-.21 2.33-.56.1-.97.28-1.13.35-.51.22-1.59 1.18-1.69 2.67-.03.52.04 1.05.2 1.55-.66.19-1.04.43-1.07.44-.32.12-.85.49-1 .69-.35.4-.58.87-.71 1.37-.29 1.09-.19 2.33.34 3.33.29.56.69 1.17 1.13 1.6 1.44 1.48 3.92 2.04 5.88 2.36 2.39.4 4.89.26 7.12-.66 3.35-1.39 4.24-3.63 4.38-4.24.29-1.39-.07-2.7-.22-3.02-.22-.46-.58-.93-1.17-1.23-.4-.25-.75-.38-1.01-.44.26-.95-.11-1.7-.62-2.26-.77-.82-1.56-.94-1.56-.94.26-.5.36-1.1.22-1.68-.16-.71-.55-1.16-1.06-1.46-.52-.31-1.16-.46-1.82-.58-.32-.06-1.65-.25-2.2-1.01-.45-.62-.46-1.74-.58-2.07-.05-.13-.12-.2-.26-.2m4.64 7.61c.07 0 .13.01.19.01 1.43.16 2.45 1.54 2.28 3.07s-1.47 2.65-2.9 2.49c-1.43-.18-2.45-1.53-2.28-3.07.16-1.45 1.35-2.55 2.71-2.5m-7.38 0c1.33.04 2.44 1.17 2.54 2.6.12 1.54-.95 2.87-2.38 2.98h-.01c-1.43.11-2.69-1.05-2.81-2.59-.11-1.54.96-2.87 2.39-2.98.09-.01.18-.01.27-.01m.02 1.7c-.04 0-.07 0-.11.01-.56.07-.96.58-.89 1.13.06.55.57.94 1.13.87s.96-.58.9-1.13c-.06-.52-.52-.89-1.03-.88m7.3.02c-.52.02-.94.42-.98.95-.04.55.39 1.03.95 1.06.59.04 1.05-.39 1.09-.94.04-.56-.39-1.04-.95-1.07-.05 0-.05 0-.11 0m-7.23 4.82c.29-.01.55.08.79.13 1.18.22 2.2.25 2.69.25s1.5-.03 2.67-.25c.41-.08.88-.25 1.25 0 .48.32.13 1.47-.61 2.25-.46.47-1.53 1.38-3.31 1.38s-2.86-.91-3.31-1.38c-.74-.78-1.09-1.93-.62-2.25.14-.09.29-.13.45-.13z"/></svg>

<?xml version="1.0" encoding="UTF-8"?><!DOCTYPE svg PUBLIC "-//W3C//DTD SVG 1.1//EN" "http://www.w3.org/Graphics/SVG/1.1/DTD/svg11.dtd"><svg xmlns="http://www.w3.org/2000/svg" xmlns:xlink="http://www.w3.org/1999/xlink" version="1.1" id="mdi-emoticon-poop" width="24" height="24" viewBox="0 0 24 24"><path d="M11.36,2C11.15,2 10.87,2.12 10.57,2.32C10,2.7 8.85,3.9 8.4,5.1C8.06,6 8.05,6.82 8.19,7.43C7.63,7.53 7.22,7.71 7.06,7.78C6.55,8 5.47,8.96 5.37,10.45C5.34,10.97 5.41,11.5 5.57,12C4.91,12.19 4.53,12.43 4.5,12.44C4.18,12.56 3.65,12.93 3.5,13.13C3.15,13.53 2.92,14 2.79,14.5C2.5,15.59 2.6,16.83 3.13,17.83C3.42,18.39 3.82,19 4.26,19.43C5.7,20.91 8.18,21.47 10.14,21.79C12.53,22.19 15.03,22.05 17.26,21.13C20.61,19.74 21.5,17.5 21.64,16.89C21.93,15.5 21.57,14.19 21.42,13.87C21.2,13.41 20.84,12.94 20.25,12.64C19.85,12.39 19.5,12.26 19.24,12.2C19.5,11.25 19.13,10.5 18.62,9.94C17.85,9.12 17.06,9 17.06,9V9C17.32,8.5 17.42,7.9 17.28,7.32C17.12,6.61 16.73,6.16 16.22,5.86C15.7,5.55 15.06,5.4 14.4,5.28C14.08,5.22 12.75,5.03 12.2,4.27C11.75,3.65 11.74,2.53 11.62,2.2C11.57,2.07 11.5,2 11.36,2M16,9.61C16.07,9.61 16.13,9.62 16.19,9.62C17.62,9.78 18.64,11.16 18.47,12.69C18.3,14.22 17,15.34 15.57,15.18V15.18C14.14,15 13.12,13.65 13.29,12.11C13.45,10.66 14.64,9.56 16,9.61M8.62,9.61C9.95,9.65 11.06,10.78 11.16,12.21C11.28,13.75 10.21,15.08 8.78,15.19H8.77C7.34,15.3 6.08,14.14 5.96,12.6V12.6C5.85,11.06 6.92,9.73 8.35,9.62V9.62C8.44,9.61 8.53,9.61 8.62,9.61M8.64,11.31C8.6,11.31 8.57,11.31 8.53,11.32C7.97,11.39 7.57,11.9 7.64,12.45C7.7,13 8.21,13.39 8.77,13.32C9.33,13.25 9.73,12.74 9.67,12.19C9.61,11.67 9.15,11.3 8.64,11.31M15.94,11.33C15.42,11.35 15,11.75 14.96,12.28C14.92,12.83 15.35,13.31 15.91,13.34C16.5,13.38 16.96,12.95 17,12.4C17.04,11.84 16.61,11.36 16.05,11.33C16,11.33 16,11.33 15.94,11.33M8.71,16.15C9,16.14 9.26,16.23 9.5,16.28C10.68,16.5 11.7,16.53 12.19,16.53C12.68,16.53 13.69,16.5 14.86,16.28C15.27,16.2 15.74,16.03 16.11,16.28C16.59,16.6 16.24,17.75 15.5,18.53C15.04,19 13.97,19.91 12.19,19.91C10.41,19.91 9.33,19 8.88,18.53C8.14,17.75 7.79,16.6 8.26,16.28C8.4,16.19 8.55,16.15 8.71,16.15Z" /></svg>
